X:662
T:A Minuet Paspe
C:John Young, c.1719
M:3/4
R:Minuet
L:1/4
%%MIDI gchord czc
%%MIDI beat 100 95 80
S:Colin Hume's website,  colinhume.com  - chords can also be printed below the stave.
Q:1/4=120
K:F
P:A
|: "C7"c | "F"f "C"gc | "F"f "/"f/e/ f/c/ | "Am"A "/"A/B/ "C"c | "Dm"F "/"F "/"A/B/ |\
"F"c "/"c "Bb"d | "F"c "/"F/G/ "Dm"A/B/ | "Am"c "/"c "G7"d | "C"c2 :|
P:B
|: "G7"g | "C"e "/"e/f/ "G/F#"g | "Am"c "/"c "Dm"d | "F"A/G/ "/"F/G/ "/"A/B/ | "C"c2 "C7"c |\
"F"f "/"f/g/ "/"f/e/ | "Bb"d "/"b/a/ "Gm"g/f/ | "C"g "/"e2 | "F"f2 :|

